X:821
T:Ashplant, The
T:Ash Plant, The
R:reel
H:A different version in Edor is #285. Also in Ador #906
D:Dervish: Playing with Fire
Z:id:hn-reel-821
M:C|
L:1/8
K:F#dor
c3B cBAB | cF~F2 EFAB | c2cB cefg | afec B2AB :|
|: c2ac bcac | c2fe cBAB |1 c2ac bcfg | afec B2AB :|2 cefg ~a3b | afec B2AB || 
P:variations
|: cF~F2 cBAB | cF~F2 EFAB | cF~F2 cBce | afec BcAB :|
|: c2ac bcac | c2ac cBAB |1 c2ac bcab | afec BcdB :|2 cefe ~a3b | afec BcAB ||

